Facilitet_punkt_5800_Piktogrammer/Fritlagt/SVG/CAMPINGPLADS.svg

<svg xmlns="http://www.w3.org/2000/svg" width="5.5mm" height="5.5mm" viewBox="0 0 15.591 15.591">
  <g>
    <path d="M14.128,8.638H13.043A5.8,5.8,0,0,0,7.356,3.943H3.105a1.1,1.1,0,0,0-1.1,1.1v4.7a1.1,1.1,0,0,0,1.1,1.1H4.794a1.376,1.376,0,0,0,2.512,0h4.748a1.1,1.1,0,0,0,1.1-1.1c0-.13-.011-.257-.019-.385h1a.358.358,0,0,0,0-.715Zm-8.078,2.3a.667.667,0,1,1,.667-.666A.667.667,0,0,1,6.05,10.933Zm6-.813H10.36a.609.609,0,0,0,.041-.2V6.862a.628.628,0,0,0-.628-.628H8.89a.628.628,0,0,0-.628.628V9.92a.635.635,0,0,0,.04.2H7.416a1.374,1.374,0,0,0-2.733,0H3.105a.382.382,0,0,1-.381-.382v-4.7a.382.382,0,0,1,.381-.382H7.356a5.086,5.086,0,0,1,5.08,5.081A.382.382,0,0,1,12.054,10.12Z" fill="#fff"/>
    <rect x="3.779" y="5.86" width="2.903" height="1.528" rx="0.5" fill="#fff"/>
  </g>
</svg>

<?xml version="1.0" encoding="UTF-8"?>
<svg id="ICONS" xmlns="http://www.w3.org/2000/svg" viewBox="0 0 15.59 15.59">
  <defs>
    <style>
      .cls-1 {
        fill: #fff;
        stroke-width: 0px;
      }
    </style>
  </defs>
  <path class="cls-1" d="M14.13,8.64h-1.09c-.52-2.67-2.87-4.7-5.69-4.7H3.11c-.6,0-1.1.49-1.1,1.1v4.7c0,.6.49,1.1,1.1,1.1h1.69c.22.48.7.81,1.26.81s1.04-.33,1.26-.81h4.75c.6,0,1.1-.49,1.1-1.1,0-.13-.01-.26-.02-.39h1c.2,0,.36-.16.36-.36s-.16-.36-.36-.36ZM6.05,10.93c-.37,0-.67-.3-.67-.67s.3-.67.67-.67.67.3.67.67-.3.67-.67.67ZM12.05,10.12h-1.69c.02-.06.04-.13.04-.2v-3.06c0-.35-.28-.63-.63-.63h-.88c-.35,0-.63.28-.63.63v3.06c0,.07.02.14.04.2h-.89c-.07-.69-.65-1.23-1.37-1.23s-1.29.54-1.37,1.23h-1.58c-.21,0-.38-.17-.38-.38v-4.7c0-.21.17-.38.38-.38h4.25c2.8,0,5.08,2.28,5.08,5.08,0,.21-.17.38-.38.38Z"/>
  <rect class="cls-1" x="3.78" y="5.86" width="2.9" height="1.53" rx=".5" ry=".5"/>
</svg>
